X: 14951
T: Gearran Buidhe
R: polka
M: 2/4
K: Gmajor
AB cA|dc BG|AB cA|Bc d2|
d2 e/d/c|BA dB|AF EF|ED B,D|
A,D D2|E2 G/F/D|A,D D2|E/F/G/E/ F2|
A,D D2|EF DE|Bc d2|BA GF|
AB cA|dc BG|AB cA|Bc d2|
f2 e/d/A/B/|cc Bc|dB AF|E/F/A B2|
A,D DF|E/D/E/F/ D2|A,D D2|F/E/F B2|
A,D DE|F/E/F/D/ EB/c/|dB AG|FE FD|

